X: 2005
T: Eighth Of January
C:Traditional, a David Grisman version
B: steve tunes
M:C
L:1/8
Q: 1/4=136
K:Dmaj
V:1 
|:e=f ||"D"^fefa fedf | "G"efed BABd |"A"{d}e2ef ecAc | "D"dBAF D2 de |
"D"fefa fedf | "G"efed BABd | "A"{d}e2ef ecAc | "D"dBAF E2D2 ||
"D"FAAA AAAF | ABAF EDDD | FAAA AAAB |"A"AFEF "D"D2DE |
"D"FAAA AAAF | ABAF EDDE | FAAA AAAB | "A"AFEF "D"D4 |]
% abcbook-tune_id 6298c25de0081bdd793cc72d


% abcbook-boost 4
% abcbook-tablature 
% abcbook-transpose 
% abcbook-lastupdated 1655807103005
% abcbook-soundfonts 
% abcbook-repeats 3


